src/next/cmd/lc_freezepanes.svg

<svg height="24" viewBox="0 0 6.3499999 6.3500003" width="24" xmlns="http://www.w3.org/2000/svg" xmlns:xlink="http://www.w3.org/1999/xlink"><linearGradient id="a" gradientUnits="userSpaceOnUse" x1="21.80477535848" x2="21.80477535848" y1="-.00061075325" y2="22.99907671585"><stop offset="0" stop-color="#fff"/><stop offset="1" stop-color="#555"/></linearGradient><linearGradient id="b" gradientTransform="matrix(.28123848 0 0 .37648631 .039471 260.72313)" gradientUnits="userSpaceOnUse" x1="46.048" x2="46.048" y1="128.01709" y2="16.6203"><stop offset="0" stop-color="#c7cdd7"/><stop offset="1" stop-color="#fff"/></linearGradient><linearGradient id="c" gradientTransform="matrix(0 -.35442022 -.35071085 0 39.004264 298.31219)" gradientUnits="userSpaceOnUse" x1="74.667397" x2="74.667397" xlink:href="#d" y1="101.61759" y2="18.585112"/><linearGradient id="d" gradientUnits="userSpaceOnUse" x1="155.6768" x2="58.676701" y1="84.944298" y2="-35.055599"><stop offset="0" stop-color="#0c69ed" stop-opacity="0"/><stop offset=".14999999" stop-color="#1b77ef"/><stop offset=".5" stop-color="#4aa3f6"/><stop offset="1" stop-color="#89ddff"/></linearGradient><linearGradient id="e" gradientTransform="matrix(.2302336 0 0 .24391936 -14.120071 -1.617784)" gradientUnits="userSpaceOnUse" x1="74.359566" x2="74.667397" xlink:href="#d" y1="98.87606" y2="18.585112"/><g transform="matrix(.171875 0 0 .171875 .264842 -45.226944)"><path d="m1.539372 267.75192h30.787445l-.001 29.25333h-30.7874921z" fill="url(#b)"/><path d="m2.1894531 3.0273438-.1875.1933593v1.1035157l1.21875-1.296875zm2.5449219 0-2.7324219 2.8847656v1.0976562l3.7519531-3.9824218zm1.265625 1.3359374-3.9980469 4.2265626v1.1035156l3.9980469-4.2480469zm0 2.4355469-3.9980469 4.2324219v.005859 1.091797.00586l3.7519531-3.9824222h-.0058593l.2519531-.2675782zm0 2.6855469-3.9980469 4.230469v1.097656.005859l3.9980469-4.248047v-.005859-1.0761718zm0 2.439453-3.9980469 4.232422v.238281.859375.244141l3.9980469-4.248047v-.240234-.841797zm0 2.685547-3.0214844 3.189453a.12347821.13081812 0 0 0 -.0234375.03125.12347821.13081812 0 0 0 -.0019531.001953l-.9511719 1.007813v1.097656l1.8242188-1.939453a.12347821.13081812 0 0 0 .0039062-.003906l.0058594-.003907a.12347821.13081812 0 0 0 .0019531-.001953l2.1621094-2.298828zm0 2.677734-.4824219.511719a.12347821.13081812 0 0 0 -.015625.019531.12347821.13081812 0 0 0 -.0019531.003907l-3.4980469 3.697265v.480469h.5859375l3.4121094-3.625v-.347656-.734375zm0 2.447266-2.1464844 2.265625h1.03125l1.1152344-1.185547z" fill="url(#e)" stroke-width=".649606" transform="matrix(1.539394 0 0 1.539394 -1.540897 263.13858)"/><path d="m1.0019531 2v1 2.9960938.0058593h-.0019531v1 2.9960938 1.0000001 3.001953 1 2.996094.005859.992188.011718 2.992188 1.003906h.9980469 3.0019531 1 6 .998047 5 1 3.001953 1v-1.003906-2.992188-.005859-9.0019531-3.9960938-.0058593-3.9960938h-4-1-5-1-5.9980469-1-3.0019531zm.9980469 1h3.0019531v2.9960938h-3.0019531zm4.0019531 0h5.9980469v2.9960938h-5.9980469zm6.9980469 0h5v2.9960938h-5zm6 0h3.001953v2.9960938h-3.001953zm-17 4.0019531h3v2.9960938h-3zm4.0019531 0h5.9980469v2.9960938h-5.9628906-.0351563zm6.9960939 0h5v2.9960938h-.033203-4.964844v-2.9589844c0-.0011738-.001878-.0008031-.001953-.0019531zm6.001953 0h3v2.9960938h-3zm-17 3.9960939h3v2.996094h-3zm4.0019531 0h5.9980469v.044922 2.910156.046875h-5.9648438-.0332031v-.005859zm6.9980469 0h4.998047v3.001953h-.035156-4.964844v-.044922c.000075-.00115.001953-.000779.001953-.001953zm6 0h3v2.996094h-3zm-17 4.005859h3v2.992188h-3zm4.0019531 0h5.9980469v2.953125.039063h-5.9980469zm6.9980469 0h4.998047v2.992188h-4.998047zm6 0h3v2.992188h-3zm-17.0019531 4.001953h3.0019531v2.992188h-3.0019531zm4.0019531 0h6v2.992188h-6zm6.998047 0h5v2.992188h-5zm6 0h3.001953v2.992188h-3.001953z" fill="url(#a)" stroke-width=".649606" transform="matrix(1.539394 0 0 1.539394 -1.540897 263.13858)"/><path d="m32.326818 267.75191v1.53789l-3.035408 3.07578h-1.570885l4.573566-4.61367zm-2.331782 0-4.549022 4.61367h-1.587248l4.581748-4.61367zm-3.501765 0-4.557204 4.61367h-1.579066l4.573566-4.61367zm-3.861759 0-4.549022 4.61367h-1.570886l.736353-.74414 3.829033-3.86953zm-3.86176 0-1.521795 1.53789-3.027227 3.07578h-1.579066l4.581748-4.61367zm-3.501765 0-4.180845 4.2416a.18809222.19008162 0 0 1 -.122725.0579h-.0082l-.310917.31419h-1.5790683l4.5817493-4.61367zm-3.567219 0-4.5572027 4.61367h-1.5790677l4.5735684-4.61367zm-3.8617593 0-4.4590231 4.52272v-1.59577l2.9045019-2.92695zm-3.8617592 0-.5972639.60358v-.60358zm28.3495685 3.86953v.74414h-.736352z" fill="url(#c)"/><path d="m1.0292969 2c-.0159742.0041511-.0273438.0184987-.0273438.0390625v.9609375 2.9960938.9570312.0429688 3.0019531.9980471 2.998047.003906.994141.011718 2.990235.958984c0 .023734.0155038.042969.0351563.042969h4.9277344c.0196523 0 .0351562-.019235.0351562-.042969v-11.9570312h.0019531 5.9980469 1 5 1 3.001953.962891c.019652 0 .035156-.0192317.035156-.0429688v-4.9140625c0-.0208813-.012955-.0352415-.029297-.0390625h-3.970703-1-5-1-5.9980469-1-3.0019531zm.9707031 1h3.0019531v2.9960938h-3.0019531zm4.0019531 0h5.9980469v2.9960938h-5.9980469zm6.9980469 0h5v2.9960938h-5zm6 0h3.001953v2.9960938h-3.001953zm-17 3.9960938h3.0019531v3.0019531h-3.0019531zm0 4.0000002h3.0019531v2.998047h-3.0019531zm0 4.007812h3.0019531v2.992188h-3.0019531zm-1 3.996094v4h1 4v-1-3h-1v3h-3v-3z" fill="#06f" stroke-width=".171875" transform="matrix(1.539394 0 0 1.539394 -1.540897 263.13858)"/><path d="m23.271484 34.910156v29.089844h5.81836 40.726562v-5.816406-23.273438h-5.816406-34.910156zm5.81836 5.81836h34.910156v17.455078h-34.910156z" fill="#60a629" transform="matrix(.26458333 0 0 .26458333 0 263.13332)"/><path d="m7.696861 273.90939h9.236234v4.61812h-9.236234z" fill="#d6ffbc"/></g></svg>

<?xml version="1.0" encoding="UTF-8" standalone="no"?>
<svg
   xmlns:dc="http://purl.org/dc/elements/1.1/"
   xmlns:cc="http://creativecommons.org/ns#"
   xmlns:rdf="http://www.w3.org/1999/02/22-rdf-syntax-ns#"
   xmlns:svg="http://www.w3.org/2000/svg"
   xmlns="http://www.w3.org/2000/svg"
   xmlns:xlink="http://www.w3.org/1999/xlink"
   xmlns:sodipodi="http://sodipodi.sourceforge.net/DTD/sodipodi-0.dtd"
   xmlns:inkscape="http://www.inkscape.org/namespaces/inkscape"
   height="24"
   viewBox="0 0 6.3499999 6.3500003"
   width="24"
   version="1.1"
   id="svg39"
   sodipodi:docname="lc_freezepanes.svg"
   inkscape:version="0.92.4 (unknown)"
   inkscape:export-filename="/home/rizmut/Dokumen/Rizmut/Github/libreoffice-style-karasa-jaga/build/next/cmd/lc_freezepanes.png"
   inkscape:export-xdpi="96"
   inkscape:export-ydpi="96">
  <metadata
     id="metadata45">
    <rdf:RDF>
      <cc:Work
         rdf:about="">
        <dc:format>image/svg+xml</dc:format>
        <dc:type
           rdf:resource="http://purl.org/dc/dcmitype/StillImage" />
        <dc:title></dc:title>
      </cc:Work>
    </rdf:RDF>
  </metadata>
  <defs
     id="defs43">
    <linearGradient
       inkscape:collect="always"
       xlink:href="#a"
       id="linearGradient885"
       gradientUnits="userSpaceOnUse"
       x1="32.028248"
       y1="256.97659"
       x2="32.028248"
       y2="292.38217"
       gradientTransform="matrix(0.64960629,0,0,0.64960629,0.99902379,-166.93422)" />
  </defs>
  <sodipodi:namedview
     pagecolor="#ffffff"
     bordercolor="#666666"
     borderopacity="1"
     objecttolerance="10"
     gridtolerance="10"
     guidetolerance="10"
     inkscape:pageopacity="0"
     inkscape:pageshadow="2"
     inkscape:window-width="1366"
     inkscape:window-height="714"
     id="namedview41"
     showgrid="true"
     inkscape:zoom="20.85965"
     inkscape:cx="12.746433"
     inkscape:cy="14.523887"
     inkscape:window-x="0"
     inkscape:window-y="28"
     inkscape:window-maximized="1"
     inkscape:current-layer="g37">
    <inkscape:grid
       type="xygrid"
       id="grid852" />
  </sodipodi:namedview>
  <linearGradient
     id="a"
     gradientUnits="userSpaceOnUse"
     x1="32.028248"
     x2="32.028248"
     y1="256.97659"
     y2="292.38217">
    <stop
       offset="0"
       stop-color="#fff"
       id="stop2" />
    <stop
       offset="1"
       stop-color="#555"
       id="stop4" />
  </linearGradient>
  <linearGradient
     id="b"
     gradientTransform="matrix(0.28123848,0,0,0.37648631,0.039471,260.72313)"
     gradientUnits="userSpaceOnUse"
     x1="46.048"
     x2="46.048"
     y1="128.01709"
     y2="16.6203">
    <stop
       offset="0"
       stop-color="#c7cdd7"
       id="stop7" />
    <stop
       offset="1"
       stop-color="#fff"
       id="stop9" />
  </linearGradient>
  <linearGradient
     id="c"
     gradientTransform="matrix(0,-0.35442022,-0.35071085,0,39.004264,298.31219)"
     gradientUnits="userSpaceOnUse"
     x1="74.667397"
     x2="74.667397"
     xlink:href="#d"
     y1="101.61759"
     y2="18.585112" />
  <linearGradient
     id="d"
     gradientUnits="userSpaceOnUse"
     x1="155.6768"
     x2="58.676701"
     y1="84.944298"
     y2="-35.055599">
    <stop
       offset="0"
       stop-color="#0c69ed"
       stop-opacity="0"
       id="stop13" />
    <stop
       offset=".14999999"
       stop-color="#1b77ef"
       id="stop15" />
    <stop
       offset=".5"
       stop-color="#4aa3f6"
       id="stop17" />
    <stop
       offset="1"
       stop-color="#89ddff"
       id="stop19" />
  </linearGradient>
  <linearGradient
     id="e"
     gradientTransform="matrix(0.2302336,0,0,0.24391936,-14.120071,-1.6177838)"
     gradientUnits="userSpaceOnUse"
     x1="74.359566"
     x2="74.667397"
     xlink:href="#d"
     y1="98.87606"
     y2="18.585112" />
  <g
     transform="matrix(0.171875,0,0,0.171875,0.26484173,-45.226944)"
     id="g37">
    <path
       inkscape:connector-curvature="0"
       style="fill:url(#b)"
       d="m 1.539372,267.75192 h 30.787445 l -0.001,29.25333 H 1.5383249 Z"
       id="path23"
       sodipodi:nodetypes="ccccc" />
    <path
       style="fill:url(#e);stroke-width:0.64960629"
       d="M 2.1894531 3.0273438 L 2.0019531 3.2207031 L 2.0019531 4.3242188 L 3.2207031 3.0273438 L 2.1894531 3.0273438 z M 4.734375 3.0273438 L 2.0019531 5.9121094 L 2.0019531 7.0097656 L 5.7539062 3.0273438 L 4.734375 3.0273438 z M 6 4.3632812 L 2.0019531 8.5898438 L 2.0019531 9.6933594 L 6 5.4453125 L 6 4.3632812 z M 6 6.7988281 L 2.0019531 11.03125 L 2.0019531 11.037109 L 2.0019531 12.128906 L 2.0019531 12.134766 L 5.7539062 8.1523438 L 5.7480469 8.1523438 L 6 7.8847656 L 6 6.7988281 z M 6 9.484375 L 2.0019531 13.714844 L 2.0019531 14.8125 L 2.0019531 14.818359 L 6 10.570312 L 6 10.564453 L 6 9.4882812 L 6 9.484375 z M 6 11.923828 L 2.0019531 16.15625 L 2.0019531 16.394531 L 2.0019531 17.253906 L 2.0019531 17.498047 L 6 13.25 L 6 13.009766 L 6 12.167969 L 6 11.923828 z M 6 14.609375 L 2.9785156 17.798828 A 0.12347821 0.13081812 0 0 0 2.9550781 17.830078 A 0.12347821 0.13081812 0 0 0 2.953125 17.832031 L 2.0019531 18.839844 L 2.0019531 19.9375 L 3.8261719 17.998047 A 0.12347821 0.13081812 0 0 0 3.8300781 17.994141 L 3.8359375 17.990234 A 0.12347821 0.13081812 0 0 0 3.8378906 17.988281 L 6 15.689453 L 6 14.609375 z M 6 17.287109 L 5.5175781 17.798828 A 0.12347821 0.13081812 0 0 0 5.5019531 17.818359 A 0.12347821 0.13081812 0 0 0 5.5 17.822266 L 2.0019531 21.519531 L 2.0019531 22 L 2.5878906 22 L 6 18.375 L 6 18.027344 L 6 17.292969 L 6 17.287109 z M 6 19.734375 L 3.8535156 22 L 4.8847656 22 L 6 20.814453 L 6 19.734375 z "
       transform="matrix(1.539394,0,0,1.539394,-1.5408973,263.13858)"
       id="path25" />
    <path
       style="fill:url(#linearGradient885);stroke-width:0.64960629"
       d="M 1.0019531 2 L 1.0019531 3 L 1.0019531 5.9960938 L 1.0019531 6.0019531 L 1 6.0019531 L 1 7.0019531 L 1 9.9980469 L 1 10.998047 L 1 14 L 1 15 L 1 17.996094 L 1 18.001953 L 1 18.994141 L 1 19.005859 L 1 21.998047 L 1 23.001953 L 1.9980469 23.001953 L 5 23.001953 L 6 23.001953 L 12 23.001953 L 12.998047 23.001953 L 17.998047 23.001953 L 18.998047 23.001953 L 22 23.001953 L 23 23.001953 L 23 21.998047 L 23 19.005859 L 23 19 L 23 9.9980469 L 23 6.0019531 L 23 5.9960938 L 23 2 L 19 2 L 18 2 L 13 2 L 12 2 L 6.0019531 2 L 5.0019531 2 L 2 2 L 1.0019531 2 z M 2 3 L 5.0019531 3 L 5.0019531 5.9960938 L 2 5.9960938 L 2 3 z M 6.0019531 3 L 12 3 L 12 5.9960938 L 6.0019531 5.9960938 L 6.0019531 3 z M 13 3 L 18 3 L 18 5.9960938 L 13 5.9960938 L 13 3 z M 19 3 L 22.001953 3 L 22.001953 5.9960938 L 19 5.9960938 L 19 3 z M 2 7.0019531 L 5 7.0019531 L 5 9.9980469 L 2 9.9980469 L 2 7.0019531 z M 6.0019531 7.0019531 L 12 7.0019531 L 12 9.9980469 L 6.0371094 9.9980469 L 6.0019531 9.9980469 L 6.0019531 7.0019531 z M 12.998047 7.0019531 L 17.998047 7.0019531 L 17.998047 9.9980469 L 17.964844 9.9980469 L 13 9.9980469 L 13 7.0390625 C 13 7.0378887 12.998122 7.0382594 12.998047 7.0371094 L 12.998047 7.0019531 z M 19 7.0019531 L 22 7.0019531 L 22 9.9980469 L 19 9.9980469 L 19 7.0019531 z M 2 10.998047 L 5 10.998047 L 5 13.994141 L 2 13.994141 L 2 10.998047 z M 6.0019531 10.998047 L 12 10.998047 L 12 11.042969 L 12 13.953125 L 12 14 L 6.0351562 14 L 6.0019531 14 L 6.0019531 13.994141 L 6.0019531 10.998047 z M 13 10.998047 L 17.998047 10.998047 L 17.998047 14 L 17.962891 14 L 12.998047 14 L 12.998047 13.955078 C 12.998122 13.953928 13 13.954299 13 13.953125 L 13 10.998047 z M 19 10.998047 L 22 10.998047 L 22 13.994141 L 19 13.994141 L 19 10.998047 z M 2 15.003906 L 5 15.003906 L 5 17.996094 L 2 17.996094 L 2 15.003906 z M 6.0019531 15.003906 L 12 15.003906 L 12 17.957031 L 12 17.996094 L 6.0019531 17.996094 L 6.0019531 15.003906 z M 13 15.003906 L 17.998047 15.003906 L 17.998047 17.996094 L 13 17.996094 L 13 15.003906 z M 19 15.003906 L 22 15.003906 L 22 17.996094 L 19 17.996094 L 19 15.003906 z M 1.9980469 19.005859 L 5 19.005859 L 5 21.998047 L 1.9980469 21.998047 L 1.9980469 19.005859 z M 6 19.005859 L 12 19.005859 L 12 21.998047 L 6 21.998047 L 6 19.005859 z M 12.998047 19.005859 L 17.998047 19.005859 L 17.998047 21.998047 L 12.998047 21.998047 L 12.998047 19.005859 z M 18.998047 19.005859 L 22 19.005859 L 22 21.998047 L 18.998047 21.998047 L 18.998047 19.005859 z "
       transform="matrix(1.539394,0,0,1.539394,-1.5408973,263.13858)"
       id="path883" />
    <path
       inkscape:connector-curvature="0"
       style="fill:url(#c)"
       d="m 32.326818,267.75191 v 1.53789 l -3.035408,3.07578 h -1.570885 l 4.573566,-4.61367 z m -2.331782,0 -4.549022,4.61367 h -1.587248 l 4.581748,-4.61367 z m -3.501765,0 -4.557204,4.61367 h -1.579066 l 4.573566,-4.61367 z m -3.861759,0 -4.549022,4.61367 h -1.570886 l 0.736353,-0.74414 3.829033,-3.86953 z m -3.86176,0 -1.521795,1.53789 -3.027227,3.07578 h -1.579066 l 4.581748,-4.61367 z m -3.501765,0 -4.180845,4.2416 a 0.18809222,0.19008162 0 0 1 -0.122725,0.0579 h -0.0082 L 10.6453,272.3656 H 9.0662317 l 4.5817493,-4.61367 z m -3.567219,0 -4.5572027,4.61367 H 5.5644976 l 4.5735684,-4.61367 z m -3.8617593,0 -4.4590231,4.52272 v -1.59577 l 2.9045019,-2.92695 z m -3.8617592,0 -0.5972639,0.60358 v -0.60358 z m 28.3495685,3.86953 v 0.74414 h -0.736352 z"
       id="path29" />
    <path
       style="fill:#0066ff;stroke-width:0.171875"
       d="M 1.0292969 2 C 1.0133227 2.0041511 1.0019531 2.0184987 1.0019531 2.0390625 L 1.0019531 3 L 1.0019531 5.9960938 L 1.0019531 6.953125 L 1.0019531 6.9960938 L 1.0019531 9.9980469 L 1.0019531 10.996094 L 1.0019531 13.994141 L 1.0019531 13.998047 L 1.0019531 14.992188 L 1.0019531 15.003906 L 1.0019531 17.994141 L 1.0019531 18.953125 C 1.0019531 18.976859 1.0174569 18.996094 1.0371094 18.996094 L 5.9648438 18.996094 C 5.9844961 18.996094 6 18.976859 6 18.953125 L 6 6.9960938 L 6.0019531 6.9960938 L 12 6.9960938 L 13 6.9960938 L 18 6.9960938 L 19 6.9960938 L 22.001953 6.9960938 L 22.964844 6.9960938 C 22.984496 6.9960938 23 6.9768621 23 6.953125 L 23 2.0390625 C 23 2.0181812 22.987045 2.003821 22.970703 2 L 19 2 L 18 2 L 13 2 L 12 2 L 6.0019531 2 L 5.0019531 2 L 2 2 L 1.0292969 2 z M 2 3 L 5.0019531 3 L 5.0019531 5.9960938 L 2 5.9960938 L 2 3 z M 6.0019531 3 L 12 3 L 12 5.9960938 L 6.0019531 5.9960938 L 6.0019531 3 z M 13 3 L 18 3 L 18 5.9960938 L 13 5.9960938 L 13 3 z M 19 3 L 22.001953 3 L 22.001953 5.9960938 L 19 5.9960938 L 19 3 z M 2 6.9960938 L 5.0019531 6.9960938 L 5.0019531 9.9980469 L 2 9.9980469 L 2 6.9960938 z M 2 10.996094 L 5.0019531 10.996094 L 5.0019531 13.994141 L 2 13.994141 L 2 10.996094 z M 2 15.003906 L 5.0019531 15.003906 L 5.0019531 17.996094 L 2 17.996094 L 2 15.003906 z M 1 19 L 1 23 L 2 23 L 6 23 L 6 22 L 6 19 L 5 19 L 5 22 L 2 22 L 2 19 L 1 19 z "
       transform="matrix(1.539394,0,0,1.539394,-1.5408973,263.13858)"
       id="path31" />
    <path
       style="fill:#60a629"
       inkscape:connector-curvature="0"
       d="M 23.271484,34.910156 V 64 h 5.81836 40.726562 V 58.183594 34.910156 H 64 29.089844 Z m 5.81836,5.81836 H 64 V 58.183594 H 29.089844 Z"
       transform="matrix(0.26458333,0,0,0.26458333,0,263.13332)"
       id="path33" />
    <path
       style="fill:#d6ffbc"
       inkscape:connector-curvature="0"
       d="m 7.696861,273.90939 h 9.236234 v 4.61812 H 7.696861 Z"
       id="path35" />
  </g>
</svg>
